docs/img/inst.svg

<svg width="16" height="16" viewBox="0 0 16 16" fill="none" xmlns="http://www.w3.org/2000/svg">
<path d="M8.0002 0.00771171C4.72341 0.00771171 1.61177 -0.283548 0.423249 2.76431C-0.0676819 4.02313 0.00361152 5.65797 0.00361152 7.99887C0.00361152 10.053 -0.0622672 11.9836 0.423249 13.2325C1.60907 16.2822 4.74597 15.99 7.99839 15.99C11.1362 15.99 14.3715 16.3165 15.5744 13.2325C16.0663 11.9611 15.9941 10.3506 15.9941 7.99887C15.9941 4.87707 16.1664 2.8617 14.6512 1.34859C13.1171 -0.184358 11.0423 0.00771171 7.99659 0.00771171H8.0002ZM7.28365 1.44778C14.1188 1.43696 14.9887 0.677701 14.5086 11.2253C14.3381 14.9557 11.4954 14.5464 8.0011 14.5464C1.62982 14.5464 1.44662 14.3642 1.44662 7.99527C1.44662 1.55238 1.952 1.45139 7.28365 1.44598V1.44778ZM12.2688 2.77423C11.739 2.77423 11.3095 3.20346 11.3095 3.73277C11.3095 4.26209 11.739 4.69132 12.2688 4.69132C12.7985 4.69132 13.2281 4.26209 13.2281 3.73277C13.2281 3.20346 12.7985 2.77423 12.2688 2.77423V2.77423ZM8.0002 3.89508C5.73235 3.89508 3.89406 5.73282 3.89406 7.99887C3.89406 10.2649 5.73235 12.1018 8.0002 12.1018C10.268 12.1018 12.1054 10.2649 12.1054 7.99887C12.1054 5.73282 10.268 3.89508 8.0002 3.89508V3.89508ZM8.0002 5.33515C11.5243 5.33515 11.5288 10.6626 8.0002 10.6626C4.47704 10.6626 4.47163 5.33515 8.0002 5.33515Z" fill="url(#paint0_linear)"/>
<defs>
<linearGradient id="paint0_linear" x1="17.8795" y1="-6.46154" x2="-7.58572" y2="-2.31421" gradientUnits="userSpaceOnUse">
<stop stop-color="#F9D76C"/>
<stop offset="0.0011048" stop-color="#F9D76C"/>
<stop offset="0.209357" stop-color="#F9A837"/>
<stop offset="0.37646" stop-color="#F03D74"/>
<stop offset="0.523815" stop-color="#E62299"/>
<stop offset="0.739443" stop-color="#6F3EA2"/>
<stop offset="1" stop-color="#4850AB"/>
</linearGradient>
</defs>
</svg>

<svg width="16" height="16" fill="none" xmlns="http://www.w3.org/2000/svg"><path d="M8 .008C4.723.008 1.612-.284.423 2.764-.067 4.024.003 5.658.003 8c0 2.054-.065 3.985.42 5.234 1.186 3.05 4.323 2.757 7.575 2.757 3.138 0 6.373.327 7.576-2.758.492-1.27.42-2.881.42-5.233 0-3.122.172-5.137-1.343-6.65C13.117-.184 11.042.008 7.997.008H8zm-.716 1.44c6.835-.011 7.705-.77 7.225 9.777-.17 3.73-3.014 3.321-6.508 3.321-6.371 0-6.554-.182-6.554-6.55 0-6.444.505-6.545 5.837-6.55v.002zm4.985 1.326a.959.959 0 100 1.918.959.959 0 000-1.918zM8 3.895a4.104 4.104 0 100 8.207 4.104 4.104 0 100-8.207zm0 1.44c3.524 0 3.529 5.328 0 5.328-3.523 0-3.528-5.328 0-5.328z" fill="url(#paint0_linear)"/><defs><linearGradient id="paint0_linear" x1="17.88" y1="-6.462" x2="-7.586" y2="-2.314" gradientUnits="userSpaceOnUse"><stop stop-color="#F9D76C"/><stop offset=".001" stop-color="#F9D76C"/><stop offset=".209" stop-color="#F9A837"/><stop offset=".376" stop-color="#F03D74"/><stop offset=".524" stop-color="#E62299"/><stop offset=".739" stop-color="#6F3EA2"/><stop offset="1" stop-color="#4850AB"/></linearGradient></defs></svg>
